;FLAVOR:Marlin
;TIME:6666
;Filament used: 0m
;Layer height: 0.1

;Generated with Cura_SteamEngine master
M104 S215
M109 S215
G28 ;Home
G1 Z15.0 F6000 ;Move the platform down 15mm
;Prime the extruder
G92 E0
G1 F200 E3
G92 E0
;LAYER_COUNT:88
;LAYER:0
M107
G0 F3600 X0.00 Y0.00 Z0.3
G0 X23.263 Y21.887
;TYPE:SKIRT
G1 F1800 X23.622 Y21.549 E0.00928
G1 X25.083 Y20.262 E0.0459
G1 X25.458 Y19.952 E0.05505
G1 X26.997 Y18.758 E0.09169
G1 X27.393 Y18.47 E0.1009
G1 X29.004 Y17.375 E0.13754
G1 X29.416 Y17.114 E0.14672
G1 X31.092 Y16.122 E0.18335
G1 X31.526 Y15.883 E0.19267
G1 X33.262 Y14.999 E0.22932
G1 X33.704 Y14.791 E0.23851
G1 X35.491 Y14.018 E0.27513
G1 X35.946 Y13.838 E0.28434
G1 X37.779 Y13.178 E0.32098
G1 X38.249 Y13.026 E0.33027
G1 X40.118 Y12.484 E0.36688
G1 X40.584 Y12.364 E0.37593
G1 X42.485 Y11.938 E0.41258
G1 X42.97 Y11.845 E0.42187
G1 X44.894 Y11.54 E0.45851
G1 X45.382 Y11.479 E0.46776
G1 X47.321 Y11.296 E0.5044
G1 X47.81 Y11.265 E0.51361
G1 X49.756 Y11.204 E0.55024
G1 X50.14 Y11.201 E0.55746
G1 X53.547 Y11.262 E0.62156
G1 X53.827 Y11.272 E0.62683
G1 X57.218 Y11.455 E0.69071
G1 X57.501 Y11.476 E0.69605
G1 X60.869 Y11.781 E0.75966
G1 X61.155 Y11.812 E0.76507
G1 X64.48 Y12.237 E0.82812
G1 X64.767 Y12.279 E0.83358
G1 X68.041 Y12.822 E0.89601
G1 X68.337 Y12.877 E0.90167
G1 X71.544 Y13.537 E0.96326
G1 X71.844 Y13.605 E0.96905
G1 X74.97 Y14.378 E1.02962
G1 X75.278 Y14.461 E1.03562
G1 X78.315 Y15.345 E1.09512
G1 X78.633 Y15.445 E1.10139
G1 X81.567 Y16.437 E1.15965
G1 X81.891 Y16.554 E1.16613
G1 X84.71 Y17.648 E1.22301
G1 X85.05 Y17.79 E1.22994
G1 X87.742 Y18.984 E1.28533
G1 X88.088 Y19.147 E1.29253
G1 X90.644 Y20.434 E1.34636
G1 X91.009 Y20.63 E1.35415
G1 X93.418 Y22.008 E1.40636
G1 X93.787 Y22.233 E1.41449
G1 X96.043 Y23.695 E1.46506
G1 X96.425 Y23.959 E1.47379
G1 X98.513 Y25.496 E1.52256
G1 X98.908 Y25.808 E1.53203
G1 X100.823 Y27.418 E1.57909
G1 X101.225 Y27.78 E1.58927
G1 X102.96 Y29.457 E1.63466
G1 X103.308 Y29.816 E1.64406
G1 X105.962 Y32.733 E1.71824
G1 X106.233 Y33.047 E1.72605
G1 X107.899 Y35.086 E1.77558
G1 X108.367 Y35.722 E1.79043
G1 X108.769 Y36.402 E1.80529
G1 X109.099 Y37.119 E1.82014
G1 X109.355 Y37.866 E1.83499
G1 X109.535 Y38.635 E1.84985
G1 X109.636 Y39.418 E1.8647
G1 X109.657 Y40.208 E1.87956
G1 X109.598 Y40.995 E1.89441
G1 X109.46 Y41.773 E1.90927
G1 X109.244 Y42.532 E1.92411
G1 X108.952 Y43.266 E1.93897
G1 X108.587 Y43.967 E1.95384
G1 X108.154 Y44.627 E1.96869
G1 X107.656 Y45.24 E1.98355
G1 X107.099 Y45.799 E1.99839
G1 X106.488 Y46.299 E2.01324
G1 X105.829 Y46.735 E2.0281
G1 X105.13 Y47.102 E2.04295
G1 X104.397 Y47.396 E2.05781
G1 X103.638 Y47.615 E2.07267
G1 X102.838 Y47.759 E2.08796
G1 X102.095 Y47.853 E2.10205
G1 X101.776 Y47.935 E2.10824
G1 X101.378 Y48.086 E2.11625
G1 X100.626 Y48.328 E2.13111
G1 X99.854 Y48.494 E2.14596
G1 X99.069 Y48.58 E2.16082
G1 X98.279 Y48.587 E2.17568
G1 X97.493 Y48.514 E2.19053
G1 X96.718 Y48.362 E2.20538
G1 X95.963 Y48.132 E2.22023
G1 X95.234 Y47.827 E2.2351
G1 X94.541 Y47.45 E2.24994
G1 X93.888 Y47.004 E2.26481
G1 X93.285 Y46.495 E2.27965
G1 X92.552 Y45.71 E2.29986
G1 X91.032 Y43.837 E2.34523
G1 X88.881 Y41.473 E2.40535
G1 X87.62 Y40.254 E2.43834
G1 X86.221 Y39.079 E2.47271
G1 X84.673 Y37.939 E2.50887
G1 X82.938 Y36.814 E2.54777
G1 X81.041 Y35.73 E2.58887
G1 X79.013 Y34.708 E2.63159
G1 X76.845 Y33.748 E2.67619
G1 X74.526 Y32.846 E2.72299
G1 X72.108 Y32.03 E2.771
G1 X69.578 Y31.293 E2.82056
G1 X66.968 Y30.648 E2.87114
G1 X64.256 Y30.089 E2.92322
G1 X61.473 Y29.628 E2.97629
G1 X58.665 Y29.269 E3.02954
G1 X55.816 Y29.011 E3.08335
G1 X52.901 Y28.853 E3.13826
G1 X50.044 Y28.802 E3.19201
G1 X48.67 Y28.845 E3.21787
G1 X47.347 Y28.971 E3.24287
G1 X46.032 Y29.179 E3.26791
G1 X44.726 Y29.471 E3.29309
G1 X43.448 Y29.842 E3.31812
G1 X42.197 Y30.292 E3.34313
G1 X40.982 Y30.818 E3.36803
G1 X39.774 Y31.433 E3.39353
G1 X38.654 Y32.096 E3.41801
G1 X37.541 Y32.853 E3.44333
G1 X36.477 Y33.678 E3.46866
G1 X35.487 Y34.55 E3.49347
G1 X34.549 Y35.488 E3.51843
G1 X33.677 Y36.478 E3.54324
G1 X32.855 Y37.538 E3.56847
G1 X32.095 Y38.656 E3.5939
G1 X31.431 Y39.777 E3.61841
G1 X30.819 Y40.98 E3.6438
G1 X30.292 Y42.197 E3.66875
G1 X29.842 Y43.448 E3.69376
G1 X29.471 Y44.726 E3.71879
G1 X29.179 Y46.032 E3.74396
G1 X28.971 Y47.347 E3.769
G1 X28.845 Y48.67 E3.794
G1 X28.804 Y50.001 E3.81905
G1 X28.845 Y51.33 E3.84406
G1 X28.971 Y52.653 E3.86906
G1 X29.179 Y53.968 E3.89411
G1 X29.471 Y55.274 E3.91928
G1 X29.842 Y56.552 E3.94431
G1 X30.292 Y57.803 E3.96932
G1 X30.819 Y59.02 E3.99427
G1 X31.431 Y60.223 E4.01966
G1 X32.093 Y61.342 E4.04411
G1 X32.855 Y62.462 E4.06959
G1 X33.677 Y63.522 E4.09483
G1 X34.546 Y64.509 E4.11956
G1 X35.487 Y65.45 E4.14459
G1 X36.477 Y66.322 E4.16941
G1 X37.541 Y67.147 E4.19474
G1 X38.654 Y67.904 E4.22006
G1 X39.774 Y68.567 E4.24454
G1 X40.982 Y69.182 E4.27004
G1 X42.197 Y69.708 E4.29494
G1 X43.448 Y70.158 E4.31995
G1 X44.726 Y70.529 E4.34498
G1 X46.032 Y70.821 E4.37016
G1 X47.347 Y71.029 E4.3952
G1 X48.67 Y71.155 E4.4202
G1 X50.043 Y71.198 E4.44604
G1 X52.901 Y71.147 E4.49981
G1 X55.814 Y70.989 E4.55468
G1 X58.666 Y70.73 E4.60855
G1 X61.474 Y70.372 E4.6618
G1 X64.272 Y69.908 E4.71515
G1 X66.958 Y69.356 E4.76673
G1 X69.586 Y68.705 E4.81766
G1 X72.111 Y67.97 E4.86713
G1 X74.528 Y67.153 E4.91512
G1 X76.823 Y66.262 E4.96143
G1 X79.011 Y65.292 E5.00645
G1 X81.049 Y64.266 E5.04937
G1 X82.938 Y63.186 E5.0903
G1 X84.665 Y62.066 E5.12902
G1 X86.229 Y60.914 E5.16556
G1 X87.621 Y59.745 E5.19975
G1 X88.882 Y58.526 E5.23274
G1 X91.032 Y56.163 E5.29284
G1 X92.552 Y54.29 E5.33821
G1 X93.081 Y53.703 E5.35308
G1 X93.665 Y53.172 E5.36792
G1 X94.301 Y52.703 E5.38279
G1 X94.98 Y52.301 E5.39763
G1 X95.697 Y51.969 E5.41249
G1 X96.444 Y51.712 E5.42735
G1 X97.213 Y51.532 E5.44221
G1 X97.996 Y51.43 E5.45706
G1 X98.785 Y51.408 E5.47191
G1 X99.573 Y51.466 E5.48677
G1 X100.35 Y51.603 E5.50161
G1 X101.378 Y51.914 E5.52182
G1 X101.776 Y52.065 E5.52982
G1 X102.095 Y52.147 E5.53602
G1 X102.838 Y52.241 E5.55011
G1 X103.615 Y52.379 E5.56495
G1 X104.375 Y52.596 E5.57982
G1 X105.109 Y52.888 E5.59468
G1 X105.809 Y53.253 E5.60953
G1 X106.469 Y53.687 E5.62439
G1 X107.081 Y54.185 E5.63923
G1 X107.64 Y54.743 E5.65409
G1 X108.14 Y55.354 E5.66894
G1 X108.576 Y56.013 E5.6838
G1 X108.942 Y56.713 E5.69866
G1 X109.236 Y57.445 E5.7135
G1 X109.454 Y58.204 E5.72835
G1 X109.595 Y58.981 E5.74321
G1 X109.656 Y59.769 E5.75807
G1 X109.637 Y60.558 E5.77292
G1 X109.539 Y61.342 E5.78778
G1 X109.362 Y62.111 E5.80263
G1 X109.108 Y62.859 E5.81748
G1 X108.779 Y63.577 E5.83234
G1 X108.38 Y64.258 E5.84719
G1 X107.899 Y64.914 E5.86249
G1 X106.233 Y66.953 E5.91202
G1 X105.962 Y67.267 E5.91982
G1 X103.309 Y70.183 E5.99398
G1 X102.961 Y70.542 E6.00338
G1 X101.226 Y72.219 E6.04877
G1 X100.824 Y72.581 E6.05895
G1 X98.909 Y74.191 E6.10601
G1 X98.514 Y74.502 E6.11547
G1 X96.425 Y76.04 E6.16426
G1 X96.043 Y76.305 E6.17301
G1 X93.787 Y77.767 E6.22358
G1 X93.417 Y77.992 E6.23172
G1 X91.009 Y79.369 E6.2839
G1 X90.646 Y79.564 E6.29165
G1 X88.089 Y80.852 E6.34551
G1 X87.74 Y81.017 E6.35277
G1 X85.048 Y82.21 E6.40816
G1 X84.712 Y82.35 E6.415
G1 X81.893 Y83.445 E6.47189
G1 X81.567 Y83.563 E6.47841
G1 X78.632 Y84.555 E6.53669
G1 X78.315 Y84.655 E6.54294
G1 X75.279 Y85.539 E6.60242
G1 X74.968 Y85.622 E6.60848
G1 X71.842 Y86.394 E6.66905
G1 X71.547 Y86.461 E6.67474
G1 X68.34 Y87.122 E6.73633
G1 X68.041 Y87.178 E6.74205
G1 X64.766 Y87.721 E6.8045
G1 X64.479 Y87.763 E6.80995
G1 X61.247 Y88.176 E6.87124
G1 X60.969 Y88.207 E6.87651
G1 X57.604 Y88.515 E6.94007
G1 X57.322 Y88.535 E6.94539
G1 X53.836 Y88.727 E7.01106
G1 X53.547 Y88.738 E7.0165
G1 X50.14 Y88.799 E7.0806
G1 X49.756 Y88.796 E7.08782
G1 X47.81 Y88.735 E7.12444
G1 X47.321 Y88.704 E7.13366
G1 X45.382 Y88.521 E7.1703
G1 X44.894 Y88.46 E7.17955
G1 X42.97 Y88.155 E7.21619
G1 X42.485 Y88.062 E7.22548
G1 X40.584 Y87.636 E7.26213
G1 X40.118 Y87.516 E7.27118
G1 X38.249 Y86.974 E7.30778
G1 X37.779 Y86.822 E7.31708
G1 X35.946 Y86.162 E7.35372
G1 X35.491 Y85.982 E7.36293
G1 X33.704 Y85.209 E7.39955
G1 X33.262 Y85.001 E7.40874
G1 X31.526 Y84.117 E7.44538
G1 X31.092 Y83.878 E7.4547
G1 X29.416 Y82.886 E7.49134
G1 X29.004 Y82.625 E7.50051
G1 X27.393 Y81.53 E7.53715
G1 X26.997 Y81.242 E7.54637
G1 X25.458 Y80.048 E7.58301
G1 X25.083 Y79.738 E7.59216
G1 X23.622 Y78.451 E7.62878
G1 X23.263 Y78.113 E7.63806
G1 X21.886 Y76.736 E7.67469
G1 X21.548 Y76.377 E7.68396
G1 X20.261 Y74.916 E7.72059
G1 X19.951 Y74.541 E7.72974
G1 X18.757 Y73.002 E7.76638
G1 X18.468 Y72.605 E7.77562
G1 X17.374 Y70.995 E7.81223
G1 X17.114 Y70.585 E7.82137
G1 X16.121 Y68.908 E7.85803
G1 X15.881 Y68.472 E7.86739
G1 X14.998 Y66.737 E7.90401
G1 X14.791 Y66.296 E7.91317
G1 X14.018 Y64.509 E7.9498
G1 X13.838 Y64.054 E7.959
G1 X13.178 Y62.221 E7.99565
G1 X13.026 Y61.751 E8.00494
G1 X12.484 Y59.882 E8.04154
G1 X12.364 Y59.416 E8.0506
G1 X11.938 Y57.515 E8.08724
G1 X11.845 Y57.03 E8.09653
G1 X11.54 Y55.106 E8.13317
G1 X11.479 Y54.618 E8.14243
G1 X11.296 Y52.679 E8.17906
G1 X11.265 Y52.191 E8.18826
G1 X11.204 Y50.246 E8.22486
G1 X11.204 Y49.757 E8.23406
G1 X11.265 Y47.81 E8.2707
G1 X11.296 Y47.321 E8.27992
G1 X11.479 Y45.382 E8.31656
G1 X11.54 Y44.894 E8.32581
G1 X11.845 Y42.97 E8.36245
G1 X11.938 Y42.485 E8.37174
G1 X12.364 Y40.584 E8.40839
G1 X12.484 Y40.118 E8.41744
G1 X13.026 Y38.249 E8.45404
G1 X13.178 Y37.779 E8.46333
G1 X13.838 Y35.946 E8.49998
G1 X14.018 Y35.491 E8.50919
G1 X14.791 Y33.704 E8.54581
G1 X14.998 Y33.263 E8.55497
G1 X15.881 Y31.528 E8.59159
G1 X16.121 Y31.092 E8.60096
G1 X17.114 Y29.415 E8.63762
G1 X17.374 Y29.005 E8.64675
G1 X18.468 Y27.395 E8.68336
G1 X18.757 Y26.998 E8.6926
G1 X19.951 Y25.459 E8.72924
G1 X20.261 Y25.084 E8.73839
G1 X21.548 Y23.623 E8.77502
G1 X21.886 Y23.264 E8.78429
G1 X23.263 Y21.887 E8.82092
G0 F3600 X23.545 Y22.169
G1 F1800 X23.887 Y21.849 E8.82973
G1 X25.348 Y20.562 E8.86636
G1 X25.703 Y20.268 E8.87503
G1 X27.242 Y19.074 E8.91167
G1 X27.618 Y18.801 E8.92041
G1 X29.229 Y17.706 E8.95705
G1 X29.62 Y17.458 E8.96576
G1 X31.296 Y16.466 E9.0024
G1 X31.707 Y16.24 E9.01122
G1 X33.443 Y15.356 E9.04786
G1 X33.863 Y15.158 E9.0566
G1 X35.65 Y14.385 E9.09322
G1 X36.081 Y14.215 E9.10194
G1 X37.914 Y13.555 E9.13858
G1 X38.36 Y13.41 E9.14741
G1 X40.229 Y12.868 E9.18401
G1 X40.672 Y12.754 E9.19262
G1 X42.573 Y12.328 E9.22926
G1 X43.032 Y12.24 E9.23805
G1 X44.956 Y11.935 E9.2747
G1 X45.42 Y11.877 E9.28349
G1 X47.359 Y11.694 E9.32013
G1 X47.822 Y11.665 E9.32886
G1 X49.768 Y11.604 E9.36548
G1 X50.132 Y11.601 E9.37233
G1 X53.539 Y11.662 E9.43642
G1 X53.806 Y11.672 E9.44145
G1 X57.197 Y11.855 E9.50533
G1 X57.465 Y11.874 E9.51038
G1 X60.833 Y12.179 E9.574
G1 X61.104 Y12.209 E9.57912
G1 X64.429 Y12.634 E9.64218
G1 X64.702 Y12.674 E9.64737
G1 X67.976 Y13.217 E9.7098
G1 X68.257 Y13.269 E9.71517
G1 X71.464 Y13.929 E9.77676
G1 X71.748 Y13.993 E9.78224
G1 X74.874 Y14.766 E9.84281
G1 X75.166 Y14.845 E9.8485
G1 X78.203 Y15.729 E9.908
G1 X78.505 Y15.824 E9.91395
G1 X81.439 Y16.816 E9.97221
G1 X81.746 Y16.927 E9.97835
G1 X84.565 Y18.021 E10.03523
G1 X84.888 Y18.156 E10.04182
G1 X87.58 Y19.35 E10.09721
G1 X87.908 Y19.505 E10.10404
G1 X90.464 Y20.792 E10.15787
G1 X90.81 Y20.978 E10.16526
G1 X93.219 Y22.356 E10.21746
G1 X93.569 Y22.569 E10.22517
G1 X95.825 Y24.031 E10.27574
G1 X96.188 Y24.282 E10.28404
G1 X98.276 Y25.819 E10.33281
G1 X98.651 Y26.114 E10.34179
G1 X100.566 Y27.724 E10.38885
G1 X100.947 Y28.067 E10.39849
G1 X102.682 Y29.744 E10.44388
G1 X103.013 Y30.085 E10.45282
G1 X105.667 Y33.002 E10.527
G1 X105.923 Y33.3 E10.53439
G1 X107.589 Y35.339 E10.58392
G1 X108.044 Y35.959 E10.59839
G1 X108.433 Y36.623 E10.61286
G1 X108.75 Y37.324 E10.62734
G1 X108.993 Y38.054 E10.64181
G1 X109.158 Y38.805 E10.65627
G1 X109.245 Y39.569 E10.67074
G1 X109.252 Y40.338 E10.6852
G1 X109.179 Y41.104 E10.69968
G1 X109.027 Y41.858 E10.71414
G1 X108.798 Y42.592 E10.72861
G1 X108.494 Y43.298 E10.74307
G1 X108.118 Y43.969 E10.75754
G1 X107.674 Y44.598 E10.77202
G1 X107.168 Y45.176 E10.78647
G1 X106.604 Y45.7 E10.80095
G1 X105.989 Y46.161 E10.81541
G1 X105.329 Y46.557 E10.82989
G1 X104.632 Y46.882 E10.84435
G1 X103.905 Y47.133 E10.85882
G1 X102.788 Y47.362 E10.88027
G1 X102.017 Y47.46 E10.89489
G1 X101.658 Y47.552 E10.90186
G1 X101.236 Y47.712 E10.91035
G1 X100.503 Y47.947 E10.92483
G1 X99.751 Y48.105 E10.93928
G1 X98.985 Y48.184 E10.95377
G1 X98.216 Y48.184 E10.96823
G1 X97.451 Y48.103 E10.9827
G1 X96.699 Y47.944 E10.99716
G1 X95.967 Y47.707 E11.01163
G1 X95.264 Y47.395 E11.0261
G1 X94.597 Y47.013 E11.04056
G1 X93.973 Y46.563 E11.05503
G1 X93.399 Y46.05 E11.06951
G1 X92.863 Y45.458 E11.08454
G1 X91.339 Y43.581 E11.13002
G1 X89.165 Y41.19 E11.1908
G1 X87.888 Y39.957 E11.22419
G1 X86.474 Y38.768 E11.25895
G1 X84.899 Y37.609 E11.29573
G1 X83.14 Y36.469 E11.33516
G1 X81.24 Y35.383 E11.37632
G1 X79.177 Y34.343 E11.41978
G1 X77 Y33.379 E11.46457
G1 X74.666 Y32.471 E11.51168
G1 X72.235 Y31.65 E11.55994
G1 X69.682 Y30.907 E11.60996
G1 X67.042 Y30.254 E11.66112
G1 X64.325 Y29.695 E11.71329
G1 X61.54 Y29.233 E11.7664
G1 X58.722 Y28.873 E11.81984
G1 X55.819 Y28.61 E11.87467
G1 X52.929 Y28.454 E11.92911
G1 X50.039 Y28.402 E11.98348
G1 X48.651 Y28.446 E12.0096
G1 X47.297 Y28.574 E12.03519
G1 X45.946 Y28.788 E12.06092
G1 X44.635 Y29.081 E12.08618
G1 X43.332 Y29.459 E12.11171
G1 X42.043 Y29.923 E12.13748
G1 X40.8 Y30.461 E12.16295
G1 X39.599 Y31.072 E12.1883
G1 X38.429 Y31.765 E12.21388
G1 X37.311 Y32.525 E12.23931
G1 X36.225 Y33.367 E12.26516
G1 X35.223 Y34.25 E12.29028
G1 X34.249 Y35.224 E12.31619
G1 X33.366 Y36.226 E12.34131
G1 X32.528 Y37.308 E12.36706
G1 X31.759 Y38.437 E12.39275
G1 X31.074 Y39.595 E12.41806
G1 X30.461 Y40.799 E12.44347
G1 X29.923 Y42.043 E12.46897
G1 X29.459 Y43.332 E12.49474
G1 X29.081 Y44.635 E12.52026
G1 X28.788 Y45.946 E12.54553
G1 X28.574 Y47.297 E12.57126
G1 X28.446 Y48.651 E12.59684
G1 X28.403 Y50.001 E12.62225
G1 X28.446 Y51.349 E12.64762
G1 X28.574 Y52.703 E12.6732
G1 X28.788 Y54.054 E12.69893
G1 X29.081 Y55.365 E12.7242
G1 X29.459 Y56.668 E12.74972
G1 X29.923 Y57.957 E12.77549
G1 X30.461 Y59.201 E12.80099
G1 X31.074 Y60.405 E12.8264
G1 X31.759 Y61.563 E12.85171
G1 X32.528 Y62.692 E12.8774
G1 X33.366 Y63.774 E12.90315
G1 X34.249 Y64.776 E12.92827
G1 X35.223 Y65.75 E12.95418
G1 X36.225 Y66.633 E12.9793
G1 X37.31 Y67.474 E13.00513
G1 X38.429 Y68.235 E13.03058
G1 X39.599 Y68.928 E13.05616
G1 X40.8 Y69.539 E13.08151
G1 X42.043 Y70.077 E13.10699
G1 X43.332 Y70.541 E13.13276
G1 X44.635 Y70.919 E13.15828
G1 X45.946 Y71.212 E13.18354
G1 X47.297 Y71.426 E13.20927
G1 X48.651 Y71.554 E13.23486
G1 X50.039 Y71.598 E13.26098
G1 X52.929 Y71.546 E13.31535
G1 X55.819 Y71.39 E13.36979
G1 X58.697 Y71.129 E13.42415
G1 X61.56 Y70.764 E13.47844
G1 X64.339 Y70.303 E13.53143
G1 X67.037 Y69.748 E13.58324
G1 X69.697 Y69.089 E13.63479
G1 X72.232 Y68.352 E13.68445
G1 X74.648 Y67.535 E13.73243
G1 X76.996 Y66.623 E13.77981
G1 X79.191 Y65.65 E13.82497
G1 X81.238 Y64.619 E13.86809
G1 X83.14 Y63.531 E13.9093
G1 X84.89 Y62.397 E13.94853
G1 X86.482 Y61.225 E13.98572
G1 X87.889 Y60.042 E14.02029
G1 X89.166 Y58.809 E14.05369
G1 X91.339 Y56.419 E14.11445
G1 X92.863 Y54.542 E14.15993
G1 X93.378 Y53.971 E14.17439
G1 X93.95 Y53.456 E14.18887
G1 X94.572 Y53.004 E14.20333
G1 X95.238 Y52.618 E14.21781
G1 X95.94 Y52.304 E14.23228
G1 X96.67 Y52.064 E14.24673
G1 X97.422 Y51.902 E14.2612
G1 X98.187 Y51.818 E14.27568
G1 X98.956 Y51.814 E14.29014
G1 X99.721 Y51.89 E14.30461
G1 X100.475 Y52.045 E14.31909
G1 X101.236 Y52.288 E14.33411
G1 X101.658 Y52.448 E14.3426
G1 X102.017 Y52.54 E14.34957
G1 X102.788 Y52.638 E14.36419
G1 X103.545 Y52.774 E14.37866
G1 X104.284 Y52.988 E14.39313
G1 X104.996 Y53.277 E14.40759
G1 X105.675 Y53.639 E14.42206
G1 X106.313 Y54.069 E14.43653
G1 X106.902 Y54.563 E14.45099
G1 X107.437 Y55.116 E14.46547
G1 X107.911 Y55.721 E14.47992
G1 X108.321 Y56.373 E14.49441
G1 X108.66 Y57.063 E14.50887
G1 X108.926 Y57.784 E14.52333
G1 X109.116 Y58.53 E14.53781
G1 X109.227 Y59.291 E14.55228
G1 X109.259 Y60.059 E14.56674
G1 X109.21 Y60.827 E14.58121
G1 X109.083 Y61.586 E14.59569
G1 X108.877 Y62.327 E14.61015
G1 X108.595 Y63.042 E14.62461
G1 X108.241 Y63.725 E14.63908
